svg/export.svg

<svg xmlns="http://www.w3.org/2000/svg" viewBox="0 0 32 32" enable-background="new 0 0 32 32"><path d="M 6 4 L 6 28 L 26 28 L 26 20 L 24 22 L 24 26 L 8 26 L 8 6 L 24 6 L 24 10 L 26 12 L 26 4 L 6 4 z M 22.40625 11 L 21 12.40625 L 23.5625 15 L 13.90625 15 L 13.90625 17 L 23.5625 17 L 21 19.59375 L 22.40625 21 L 26.71875 16.71875 L 27.40625 16 L 26.71875 15.28125 L 22.40625 11 z"/></svg>

<svg xmlns="http://www.w3.org/2000/svg" viewBox="0 0 32 32"><path d="M6 4v24h20v-8l-2 2v4H8V6h16v4l2 2V4H6zm16.406 7L21 12.406 23.563 15h-9.657v2h9.656L21 19.594 22.406 21l4.313-4.28.686-.72-.687-.72L22.405 11z"/></svg>
